X: 30382
T: Old Road North, The
R: reel
M: 4/4
K: Dmajor
D3 A F2 EF|EDDE FAAB|G3 A B2 BA|B/c/d ef g2 ag|
f2 gf defg|fBBA B4|B2 BA B/c/d AG|GAGF EGGF|
D3 A F2 EF|EDDE FAAB|G3 A B2 BA|B/c/d ef g2 ag|
f2 ef edAG|F2 EF DEFG|B2 BA B/c/d AG|GAGF E4|
A3 G AD (3DDD|FDFA d2 cd|B2 BA BGGA|B z BA B/c/d eg|
f2 gf defg|fBBA B4|B2 BA B/c/d AG|GAGF EGGF|
A3 G AD (3DDD|FDFA d2 cd|B2 BA BGGA|ABBA B/c/d eg|
f2 ef edAG|F2 EF DEFG|B2 BA B/c/d AG|GAGF E4||

